packages/core/src/svgs/tokens/mono/CGO.svg

<svg width="24" height="24" viewBox="0 0 24 24" fill="none" xmlns="http://www.w3.org/2000/svg">
<path fill-rule="evenodd" clip-rule="evenodd" d="M14.2737 10.2632L13.7316 9.7263C14.7842 8.63683 15.6631 7.61579 15.6842 5.98947C15.7105 3.8842 14.1474 2 12 2C9.85261 2 8.28947 3.87895 8.31579 5.98947C8.33684 7.61579 9.21053 8.63683 10.2632 9.7263L9.72108 10.2632C8.63158 9.21053 7.58947 8.31579 5.94737 8.31579C3.85263 8.31579 2 9.86839 2 12C2 14.1316 3.85263 15.6842 5.94737 15.6842C7.59474 15.6842 8.63158 14.7895 9.72636 13.7315L10.2737 14.2684C9.18948 15.3894 8.32632 16.3632 8.31579 18.0263C8.3 20.1316 9.85789 22 12 22C14.1579 22 15.6789 20.0948 15.6315 17.9736C15.6 16.3684 14.7737 15.3526 13.7369 14.279L14.2789 13.7368C15.4105 14.8315 16.3999 15.6947 18.0895 15.6842C20.1684 15.6684 21.9999 14.1211 21.9999 12C21.9999 9.89467 20.1947 8.34736 18.1264 8.31579C16.4473 8.28947 15.3895 9.18946 14.2737 10.2632ZM12.0053 2.52631C10.1105 2.52631 8.81579 4.13684 8.8421 5.98947C8.86317 7.47368 9.64212 8.39473 10.6 9.38421L10.9632 9.02631C10.1052 8.13684 9.4 7.32104 9.36842 5.98947C9.33158 4.38947 10.3684 3.05263 12 3.05263C13.6316 3.05263 14.6684 4.39474 14.6315 5.98947C14.6 7.32104 13.8947 8.13684 13.0369 9.02631L13.3947 9.38947C14.3526 8.4 15.1369 7.47895 15.1579 5.98947C15.1842 4.1421 13.8947 2.52631 12 2.52631H12.0053ZM12.7 8.68947L12.3316 8.32105C12.9842 7.65789 13.5789 7 13.5789 5.99474C13.5789 4.98947 13.1106 4.10525 12 4.10525C10.8947 4.10525 10.4211 4.97894 10.4211 5.98947C10.4211 7 11.0106 7.65263 11.6632 8.32631L11.2947 8.68947C10.5369 7.89999 9.92629 7.17367 9.89473 5.98947C9.85789 4.65263 10.6316 3.57894 12 3.57894C13.3842 3.57894 14.1579 4.67895 14.1053 6.02631C14.0526 7.19473 13.4526 7.91052 12.7 8.68947ZM12.3684 9.03157L12 8.66315L11.6316 9.03157L12 9.41578L12.3684 9.03157ZM13.0632 9.73158L12.7053 9.36842L12.3369 9.75258L12.6947 10.1106L13.0632 9.73158ZM13.0316 10.4473L13.4 10.0684L13.9315 10.5947L13.5527 10.9632L13.0316 10.4473ZM13.8895 11.3052L14.2684 10.9368L14.6315 11.2947L14.2474 11.6631L13.8895 11.3052ZM14.6105 10.6052L14.9737 10.9632C15.8894 10.079 16.7368 9.35262 18.1264 9.36842C19.6842 9.38947 20.9474 10.421 20.9474 12C20.9474 13.6 19.6526 14.6316 18.0895 14.6316C16.6421 14.6316 15.9527 13.9843 14.9789 13.0421L14.6158 13.3999C15.6684 14.4158 16.521 15.1684 18.0895 15.1579C19.9052 15.1421 21.4737 13.8632 21.4737 12C21.4737 10.1578 19.9368 8.87368 18.1264 8.8421C16.5841 8.81579 15.6315 9.61578 14.6105 10.6052ZM14.6 11.9842L14.9684 11.6315L15.3368 12H15.3315L15.3368 12.0105L14.9684 12.3737L14.5895 12.0052L14.6052 11.9842H14.6ZM13.9052 12.0052L13.8947 12L13.9 11.9947L13.5421 11.6368L13.1631 12L13.5315 12.3579L13.9 12.0052H13.9052ZM13.2 12.6895L12.8263 12.3315L12.3316 12.8263L12.6895 13.1947L13.2 12.6948V12.6895ZM13.021 13.5369L13.5474 13.0264L13.9368 13.4052L13.4053 13.9316L13.021 13.5369ZM12.3473 13.5263L12 13.1685L11.6369 13.542L11.9789 13.8895L12.3473 13.5263ZM12.3157 14.2263L12.6789 13.8685L13.0684 14.2737L12.7053 14.6316L12.3157 14.2263ZM13.8842 12.6895L14.2474 12.3368L14.6368 12.7052L14.2737 13.0737L13.8842 12.6895ZM15.3052 11.3L15.6737 11.6684C16.3737 10.9948 17.0948 10.4316 18.0947 10.421C19.1053 10.4105 19.8948 10.9262 19.8948 12C19.8948 13.0842 19.1211 13.5947 18.0631 13.5789C17.0158 13.5632 16.3789 13.0105 15.6842 12.3421H15.6789L15.3105 12.7052C16.2106 13.5632 16.7842 14.1052 18.0947 14.1052C19.4 14.1052 20.4263 13.3421 20.4263 12C20.4263 10.6684 19.4106 9.89995 18.1052 9.89467C16.8737 9.88951 16.1263 10.5158 15.3158 11.3H15.3052ZM11.3 9.36842L10.9369 9.7263L11.321 10.1263L11.6842 9.76843L11.3 9.36842ZM9.39474 13.3947C8.38947 14.3631 7.4579 15.1579 5.94737 15.1579C4.08422 15.1579 2.52633 13.8842 2.52633 12C2.52633 10.1157 4.08422 8.8421 5.94737 8.8421C7.45263 8.8421 8.38422 9.63162 9.38421 10.6L9.02631 10.9579C8.12632 10.0947 7.3 9.37894 5.94737 9.36842C4.36843 9.35262 3.05264 10.3895 3.05264 12C3.05264 13.6106 4.36843 14.6474 5.94737 14.6316C7.3 14.6157 8.13158 13.9053 9.03158 13.0315L9.38948 13.3947H9.39474ZM10.0789 13.3947L10.6053 13.9263L10.9737 13.5473L10.4579 13.0315L10.0789 13.3999V13.3947ZM10.6157 14.6053C9.61584 15.6422 8.82632 16.4842 8.84737 18.0263C8.86842 19.7842 10.0158 21.4789 12.0053 21.4789C13.9 21.4789 15.179 19.9 15.1632 18.0211C15.1473 16.5315 14.3632 15.6053 13.4053 14.6157L13.0422 14.9737C13.9158 15.8842 14.6315 16.7263 14.6315 18.1053C14.6315 19.7315 13.6158 20.9526 12 20.9526C10.3631 20.9526 9.33684 19.6895 9.36842 18.0316C9.39474 16.6105 10.0421 15.9368 10.9684 14.9684L10.6106 14.6105L10.6157 14.6053ZM11.3053 14.621L10.9473 14.2632L11.3106 13.8842L11.6684 14.2473L11.3053 14.621ZM11.3157 15.3053C10.4474 16.1999 9.93157 16.7263 9.90001 18.0263C9.86845 19.4632 10.621 20.4211 12.0053 20.4211C13.3684 20.4211 14.1106 19.5053 14.1106 18.0947C14.1106 16.8684 13.4894 16.1211 12.7053 15.3106L12.379 15.679C13.0526 16.3737 13.5684 17.0473 13.5842 18.1C13.5999 19.1526 13.0842 19.8947 12.0053 19.8947C10.9316 19.8947 10.4158 19.1526 10.4264 18.1C10.4368 17.1316 10.8526 16.5211 11.679 15.6684L11.3106 15.3L11.3157 15.3053ZM12.0157 15.3263L11.6473 14.9579L12.0053 14.5895L12.3737 14.9684L12.0157 15.3263ZM9.7368 13.0632L9.37896 12.7052L9.75793 12.3368L10.1211 12.6948L9.7368 13.0632ZM9.04211 12.3684L9.42105 12L9.03684 11.6315L8.68948 11.9947L9.04211 12.3631V12.3684ZM8.33158 12.3315C7.62631 13.0105 6.8579 13.5789 5.88948 13.5789C4.92106 13.5789 4.10527 13.0684 4.10527 12C4.10527 10.9052 4.92106 10.421 5.94737 10.421C6.97368 10.421 7.63158 11.0001 8.32106 11.6631L8.68948 11.2947C7.88948 10.5263 7.15264 9.91051 5.94737 9.89467C4.62633 9.87895 3.57895 10.6474 3.57895 12C3.57895 13.3527 4.62633 14.1211 5.94737 14.1052C7.15789 14.0895 7.89473 13.4736 8.68948 12.6999L8.32106 12.3315H8.33158ZM16.0211 12.0052C16.6053 11.4316 17.3527 10.9474 18.1052 10.9474C18.8421 10.9474 19.3684 11.1894 19.3684 12C19.3684 12.8105 18.7578 13.0527 18.0895 13.0527C17.4158 13.0527 16.6053 12.5737 16.0158 12L16.0211 12.0052ZM10.0737 10.5947L10.6 10.0684L10.9842 10.4579L10.4579 10.9737L10.0684 10.5947H10.0737ZM9.36842 11.2895L9.72636 10.9315L10.1158 11.3105L9.75264 11.6684L9.36842 11.2895ZM7.98421 12C7.40001 11.4369 6.66842 10.8947 5.9158 10.8947C5.15789 10.8947 4.63158 11.179 4.63158 12C4.63158 12.8105 5.2579 13.1052 5.89474 13.1052C6.78947 13.0948 7.39474 12.5684 7.98421 12ZM11.3106 10.8L10.7999 11.3052L11.1684 11.6579L11.6579 11.1631L11.3106 10.8ZM10.4579 11.6421L10.0948 12.0052L10.4579 12.3631L10.8316 12L10.4632 11.6421H10.4579ZM12.0157 10.1053L11.6473 10.4684L12 10.8316L12.3684 10.4526L12.0157 10.1053ZM12.3473 11.1579L12.7053 10.7894L13.2105 11.2947L12.8421 11.6527L12.3473 11.1579ZM11.2947 13.2105L10.7948 12.6999L11.1842 12.3262L11.6737 12.8158L11.3 13.2053L11.2947 13.2105ZM12.0157 11.5L11.5158 11.9842L12.0053 12.4736L12.5 11.9842L12.0157 11.5ZM13.0369 18.1316C13.0422 17.2211 12.5736 16.6052 12 16.0157C11.242 16.7947 10.9473 17.3473 10.9473 18.1316C10.9473 18.9105 11.1948 19.3684 12 19.3684C12.8053 19.3684 13.0316 18.9105 13.0369 18.1316ZM12.0053 4.63158C11.1526 4.63158 10.9473 5.33684 10.9473 5.98947C10.9473 6.6421 11.4527 7.42104 12 7.98947C12.5474 7.42104 13.1053 6.70526 13.1053 5.98947C13.1053 5.27368 12.8527 4.63158 12 4.63158H12.0053Z" fill="white"/>
</svg>

<svg xmlns="http://www.w3.org/2000/svg" width="24" height="24" fill="none" viewBox="0 0 24 24">
    <path fill="#fff" fill-rule="evenodd" d="m14.274 10.263-.542-.537c1.052-1.09 1.931-2.11 1.952-3.737C15.711 3.884 14.147 2 12 2S8.29 3.879 8.316 5.99c.02 1.626.895 2.647 1.947 3.736l-.542.537C8.631 9.211 7.59 8.316 5.947 8.316 3.853 8.316 2 9.868 2 12s1.853 3.684 3.947 3.684c1.648 0 2.685-.894 3.78-1.952l.547.536c-1.085 1.121-1.948 2.095-1.958 3.758C8.3 20.132 9.858 22 12 22c2.158 0 3.679-1.905 3.632-4.026-.032-1.606-.858-2.621-1.895-3.695l.542-.542c1.132 1.095 2.12 1.958 3.81 1.947C20.17 15.668 22 14.121 22 12c0-2.105-1.804-3.653-3.873-3.684-1.679-.027-2.737.873-3.852 1.947m-2.269-7.737c-1.895 0-3.19 1.61-3.163 3.463.021 1.485.8 2.406 1.758 3.395l.363-.358c-.858-.89-1.563-1.705-1.595-3.037-.036-1.6 1-2.936 2.632-2.936s2.668 1.342 2.632 2.936c-.032 1.332-.737 2.148-1.595 3.037l.358.363c.958-.989 1.742-1.91 1.763-3.4.026-1.847-1.263-3.463-3.158-3.463zM12.7 8.69l-.368-.368c.652-.663 1.247-1.321 1.247-2.326S13.11 4.105 12 4.105c-1.105 0-1.579.874-1.579 1.884 0 1.011.59 1.664 1.242 2.337l-.368.363c-.758-.789-1.369-1.515-1.4-2.7-.037-1.336.737-2.41 2.105-2.41 1.384 0 2.158 1.1 2.105 2.447-.052 1.169-.652 1.885-1.405 2.663m-.332.343L12 8.663l-.368.369.368.384zm.695.7-.358-.364-.368.385.358.358zm-.031.715.368-.379.531.527-.378.368zm.857.858.38-.368.363.358-.385.368zm.722-.7.363.358c.915-.884 1.763-1.61 3.152-1.595 1.558.021 2.821 1.053 2.821 2.632 0 1.6-1.294 2.632-2.857 2.632-1.448 0-2.137-.648-3.111-1.59l-.363.358c1.052 1.016 1.905 1.768 3.474 1.758 1.815-.016 3.384-1.295 3.384-3.158 0-1.842-1.537-3.126-3.348-3.158-1.542-.026-2.495.774-3.516 1.763m-.011 1.38.368-.353.369.368h-.005l.005.01-.369.364-.379-.369.016-.02zm-.695.02-.01-.005.005-.005-.358-.358-.379.363.368.358.369-.353zm-.705.684-.374-.357-.494.494.357.369.511-.5zm-.179.848.526-.51.39.378-.532.527zm-.674-.01L12 13.168l-.363.373.342.348zm-.031.7.363-.359.39.406-.364.358zm1.568-1.537.363-.353.39.368-.363.369zm1.421-1.39.369.368c.7-.673 1.42-1.236 2.42-1.247 1.011-.01 1.8.505 1.8 1.579 0 1.084-.773 1.595-1.83 1.579-1.048-.016-1.685-.569-2.38-1.237h-.005l-.369.363c.9.858 1.474 1.4 2.785 1.4 1.305 0 2.331-.763 2.331-2.105 0-1.332-1.015-2.1-2.32-2.105-1.232-.005-1.98.62-2.79 1.405zM11.3 9.368l-.363.358.384.4.363-.358zm-1.905 4.027c-1.006.968-1.937 1.763-3.448 1.763-1.863 0-3.42-1.274-3.42-3.158s1.557-3.158 3.42-3.158c1.506 0 2.437.79 3.437 1.758l-.358.358c-.9-.863-1.726-1.58-3.079-1.59C4.368 9.353 3.053 10.39 3.053 12s1.315 2.647 2.894 2.632c1.353-.016 2.185-.727 3.085-1.6l.357.363zm.684 0 .526.531.369-.379-.516-.516-.38.369zm.537 1.21c-1 1.037-1.79 1.88-1.769 3.421.021 1.758 1.169 3.453 3.158 3.453 1.895 0 3.174-1.579 3.158-3.458-.016-1.49-.8-2.416-1.758-3.405l-.363.358c.874.91 1.59 1.752 1.59 3.131 0 1.627-1.016 2.848-2.632 2.848-1.637 0-2.663-1.264-2.632-2.921.027-1.422.674-2.095 1.6-3.064l-.357-.357zm.69.016-.359-.358.364-.379.357.363zm.01.684c-.869.895-1.384 1.421-1.416 2.721-.032 1.437.721 2.395 2.105 2.395 1.363 0 2.106-.916 2.106-2.326 0-1.227-.622-1.974-1.406-2.784l-.326.368c.674.695 1.19 1.368 1.205 2.421s-.5 1.795-1.579 1.795c-1.073 0-1.59-.742-1.579-1.795.01-.968.427-1.579 1.253-2.432l-.368-.368zm.7.021-.369-.368.358-.369.369.38zm-2.28-2.263-.357-.358.379-.368.363.358zm-.694-.695L9.421 12l-.384-.368-.348.363.353.368zm-.71-.037c-.706.68-1.474 1.248-2.443 1.248-.968 0-1.784-.51-1.784-1.579 0-1.095.816-1.579 1.842-1.579s1.685.58 2.374 1.242l.368-.368c-.8-.769-1.536-1.384-2.742-1.4-1.32-.016-2.368.752-2.368 2.105s1.047 2.121 2.368 2.105c1.21-.016 1.948-.631 2.742-1.405l-.368-.368zm7.69-.326c.583-.573 1.33-1.058 2.083-1.058.737 0 1.263.242 1.263 1.053s-.61 1.053-1.278 1.053c-.674 0-1.485-.48-2.074-1.053zm-5.948-1.41.526-.527.384.39-.526.516-.39-.38zm-.706.694.358-.357.39.378-.363.358zM7.984 12c-.584-.563-1.316-1.105-2.068-1.105-.758 0-1.284.284-1.284 1.105 0 .81.626 1.105 1.263 1.105.894-.01 1.5-.537 2.09-1.105m3.327-1.2-.511.505.368.353.49-.495zm-.853.842-.363.363.363.358.374-.363-.369-.358zm1.558-1.537-.369.363.353.364.368-.38zm.331 1.053.358-.369.505.506-.368.358zm-1.052 2.053-.5-.511.39-.374.489.49-.374.39zm.72-1.711-.5.484.49.49.495-.49zm1.022 6.632c.005-.91-.463-1.527-1.037-2.116-.758.779-1.053 1.331-1.053 2.116 0 .778.248 1.236 1.053 1.236s1.032-.457 1.037-1.236m-1.032-13.5c-.852 0-1.058.705-1.058 1.357 0 .653.506 1.432 1.053 2 .547-.568 1.105-1.284 1.105-2 0-.715-.252-1.357-1.105-1.357z" clip-rule="evenodd"/>
</svg>
